X:2231
T:Brudpolska fr\aa{}n Indal
S:"Den f\"orsta polskan p\aa{} br\"ollopet"
R:Polska
Q:130
S:efter Gunbritt Hermansson, Aln\"on
M:3/4
L:1/8
C:e. Gunbritt Hermansson
O:Sweden
A:Indal, Medelpad
K:A
ef/g/ a2 a>b | a>g (ae) (ce) | \
e>d (B>d) c>c | Bc/B/ AA GG | \
ef/g/ a2 a>b | a>g (ae) (ce) | 
e>d (B>=c) (A>G) |1 (G<A) A3 z :|2(G<A) A3 z  | \
K:Dm 
|:"Hä räck nog te torsdan!"\
[A,2D2] f2 e>d | (d^c) A3 z |
D>E F2 (ED) | ^CD (EF) (DC) | \
A,2 f2 e>d | (d^c) A3 z | \
D>E F2 (ED) | (^CE) D3 z :|


